X:1
T:Schubert, 76.76 D
T:Arr from Franz Schubert by W.W. Gilchrist, 1895
T:Schubert, 76.76 D
T:Public Domain
C:Arr from Franz Schubert by W.W. Gilchrist, 1895
Z:Public Domain
%%score ( 1 2 ) ( 3 4 )
L:1/8
M:4/4
K:G
V:1 treble 
V:2 treble 
V:3 bass 
V:4 bass 
V:1
 D2 | [GB]2 [GB]2 [G^A]2 [GA]2 | [GB]4 [DG]2 [EG]2 | [EA]2 [EA]2 [Dc]2 [Dc]2 | [DB]6 D2 | %5
 [GB]2 [GB]2 [G^A]2 [GA]2 | [GB]4 [DG]2 [EG]2 | [EA]2 [EA]2 D2 z A x | [B,G]6 D2 | %9
 [FA]2 [FA]2 [^E^G]2 [EG]2 | [FA]4 D2 D2 | [FA]2 [FA]2 [=FB]2 [FB]2 | [Fc]6 D2 | %13
 [GB]2 [GB]2 [G^A]2 [GA]2 | [GB]4 [DG]2 [EG]2 | [EA]2 [EA]2 D2 z A x | [B,G]6 |] %17
V:2
 D2 | x8 | x8 | x8 | x6 D2 | x8 | x8 | x4 B3 C2 | x6 D2 | x8 | x4 D2 D2 | x8 | x6 D2 | x8 | x8 | %15
 x4 B3 C2 | x6 |] %17
V:3
 [G,B,]2 | [G,D]2 [G,D]2 [G,^C]2 [G,C]2 | [G,D]4 [G,B,]2 [E,B,]2 | [C,C]2 (A,G,) [D,F,]2 [D,F,]2 | %4
 [G,,G,]6 [G,B,]2 | [G,D]2 [G,D]2 [G,^C]2 [G,C]2 | [G,D]4 [G,B,]2 [E,B,]2 | %7
 [C,C]2 [C,A,]2 [D,F,]2 [D,F,]2 x | [G,,G,]6 D,2 | [D,C]2 [D,C]2 [D,B,]2 [D,B,]2 | %10
 [D,C]4 [D,F,]2 D,2 | [D,C]2 [D,C]2 [D,^G,]2 [D,G,]2 | [D,A,]6 D,2 | [G,D]2 [G,D]2 [G,^C]2 [G,C]2 | %14
 [G,D]4 [G,B,]2 [E,B,]2 | [C,C]2 [C,A,]2 [D,F,]2 [D,F,]2 x | [G,,G,]6 |] %17
V:4
 x2 | x8 | x8 | x2 C,2 x4 | x8 | x8 | x8 | x9 | x6 D,2 | x8 | x6 D,2 | x8 | x6 D,2 | x8 | x8 | x9 | %16
 x6 |] %17

